!!!COM:	Martini, Johannes
!!!CDT:	~1440///-~1497//
!!!OTL:	Da pacem Domine
!!!AGN:	Motet
!!!SCT:	Mar2019
!!!SCA:	Mar2019
!!!voices:	4
**kern	**kern	**kern	**kern
*staff4	*staff3	*staff2	*staff1
*Ivox	*Ivox	*Ivox	*Ivox
*I"Bassus	*I"Tenor	*I"Altus	*I"Superius
*I'B	*I'T	*I'A	*I'S
*clefF4	*clefGv2	*clefGv2	*clefG2
*k[b-]	*k[b-]	*k[b-]	*k[b-]
*M2/1	*M2/1	*M2/1	*M2/1
*met(C|)	*met(C|)	*met(C|)	*met(C|)
!!section: Da pacem, Domine
!!!OMD: Da pacem, Domine
!	!LO:TX:Z=8:t=Tenor altus fuga [unison canon at the distance of 3 breves]	!	!
=1-	=1-	=1-	=1-
0GG	0r	0r	0r
=2	=2	=2	=2
0FF	0r	0r	0r
=3	=3	=3	=3
0GG	0r	0r	0g
=4	=4	=4	=4
2.BB-/	0r	0r	0f
4C/	.	.	.
4D\	.	.	.
4E-i\	.	.	.
[2D\	.	.	.
=5	=5	=5	=5
2D\]	0r	0r	0g
4C/	.	.	.
4BB-/	.	.	.
1C	.	.	.
=6	=6	=6	=6
2BB-/	0G	0r	2.b-\
1GG	.	.	.
.	.	.	4cc\
.	.	.	4dd\
.	.	.	4ee-i\
[2BB-/	.	.	[2dd\
=7	=7	=7	=7
2BB-/]	0F	0r	2dd\]
4AA/	.	.	4cc\
4GG/	.	.	4b-\
1AA	.	.	1cc
=8	=8	=8	=8
1GG	0G	0r	1b-
1GG	.	.	2g/
.	.	.	[2b-\
=9	=9	=9	=9
0r	2.B-\	0G	4b-\]
.	.	.	4a/
.	.	.	2.g/
.	4c\	.	.
.	4d\	.	.
.	4e-i\	.	4a/
.	[2d\	.	[2b-\
=10	=10	=10	=10
0r	2d\]	0F	2b-\]
.	4c\	.	4a/
.	4B-\	.	4g/
.	1c	.	1a
=11	=11	=11	=11
1GG	1B-	0G	1.g
1C	1r	.	.
.	.	.	4f/
.	.	.	4e/
=12	=12	=12	=12
0BB-	0r	2.B-\	1d
.	.	4c\	.
.	.	4d\	1f
.	.	4e-i\	.
.	.	[2d\	.
=13	=13	=13	=13
0C	1r	2d\]	0e
.	.	4c\	.
.	.	4B-\	.
.	1A	1c	.
=14	=14	=14	=14
1G	1.B-	1B-	0d
2B-\	.	1r	.
4A\	[2d\	.	.
4G\	.	.	.
=15	=15	=15	=15
2B-\	2d\]	0r	0r
2A\	2c\	.	.
2G\	2B-\	.	.
[2A\	[2c\	.	.
=16	=16	=16	=16
4A\]	4c\]	1r	0r
4G\	4B-\	.	.
1G	4A/	.	.
.	4G/	.	.
.	1A	1A	.
2F#i\	.	.	.
=17	=17	=17	=17
1G	0G	1.B-	1.b-
2r	.	.	.
[2G\	.	[2d\	4a/
.	.	.	4g/
=18	=18	=18	=18
4G\]	0r	2d\]	2b-\
4D\	.	.	.
2F\	.	2c\	2a/
2G\	.	2B-\	2g/
[2F\	.	[2c\	[2a/
=19	=19	=19	=19
4F\]	0r	4c\]	4a/]
4G\	.	4B-\	4g/
2E\	.	4A/	1g
.	.	4G/	.
1D	.	1A	.
.	.	.	2f#i/
=20	=20	=20	=20
1GG	1.B-	0G	2g/
.	.	.	2.G/
2r	.	.	.
.	.	.	4A/
[2G\	4A/	.	4B-/
.	4G/	.	4c/
=21	=21	=21	=21
4G\]	2B-\	0r	2d/
4D\	.	.	.
2F\	2A/	.	2c/
2G\	2G/	.	2B-/
[2F\	[2A/	.	[2c/
=22	=22	=22	=22
4F\]	4A/]	0r	4c/]
4G\	4G/	.	4B-/
2E\	1G	.	4A/
.	.	.	4G/
1D	.	.	1A
.	2F#i/	.	.
=23	=23	=23	=23
2r	1G	1.B-	1G
2.GG/	.	.	.
.	1r	.	1r
4AA/	.	.	.
4BB-/	.	4A/	.
4C/	.	4G/	.
=24	=24	=24	=24
2D\	0r	2B-\	0r
2C/	.	2A/	.
2BB-/	.	2G/	.
[2C/	.	[2A/	.
=25	=25	=25	=25
4C/]	0r	4A/]	1r
4BB-/	.	4G/	.
4AA/	.	1G	.
4GG/	.	.	.
1AA	.	.	1A
.	.	2F#i/	.
=26	=26	=26	=26
1GG	0r	1G	0B-
1G	.	1r	.
=27	=27	=27	=27
2A\	0r	0r	0c
2.F\	.	.	.
4G\	.	.	.
4A\	.	.	.
4B-\	.	.	.
=28	=28	=28	=28
2G\	1r	0r	1d
2B-\	.	.	.
1F	1A	.	1c
=29	=29	=29	=29
2.BB-/	0B-	0r	2.d/
4C/	.	.	4e/
2D\	.	.	2f/
[2E-i\	.	.	[2g/
=30	=30	=30	=30
4E-\]	0c	0r	4g/]
4C/	.	.	4e/
2.F\	.	.	2.a/
4Eni\	.	.	4g/
4D\	.	.	4f/
4C/	.	.	4e/
=31	=31	=31	=31
2BB-/	1d	1r	2d/
2D\	.	.	2f/
1AA	1c	1A	1e
=32	=32	=32	=32
1r	0d	0B-	0d
1D	.	.	.
=33	=33	=33	=33
0C	0e	0c	1G
.	.	.	1A
=34	=34	=34	=34
1BB-	1f	1d	1B-
1C	[1e	1c	1G
=35	=35	=35	=35
1BB-	2e\]	0d	1B-
.	2d\	.	.
1D	[1d	.	1A
=36	=36	=36	=36
0AA	1d]	0e	1r
.	1c#i	.	[1a
=37	=37	=37	=37
1D	1d	1f	2a/]
.	.	.	2b-\
1C	1r	[1e	1cc
=38	=38	=38	=38
0D	0r	2e\]	0a
.	.	2d\	.
.	.	[1d	.
=39	=39	=39	=39
0E	0r	1d]	0g
.	.	1c#i	.
=40	=40	=40	=40
1.D	0r	1d	1r
.	.	1r	1dd
2E\	.	.	.
=41	=41	=41	=41
1F	1r	0r	1cc
2r	1d	.	1b-
[2G\	.	.	.
=42	=42	=42	=42
2G\]	1c	0r	1a
2F\	.	.	.
2G\	1B-	.	2b-\
2B-\	.	.	2dd\
=43	=43	=43	=43
1F	1A	0r	1cc
2r	2B-\	.	2b-\
[2G\	2d\	.	[2b-\
=44	=44	=44	=44
2G\]	1c	1r	2b-\]
2F\	.	.	2a/
2G\	2B-\	1d	2b-\
2B-\	[2B-\	.	2g/
=45	=45	=45	=45
1F	2B-\]	1c	2a/
.	2A/	.	1f
1D	1B-	1B-	.
.	.	.	4e/
.	.	.	4d/
=46	=46	=46	=46
1C	0r	1A	1e
1BB-	.	2B-\	2d/
.	.	2d\	[2f/
=47	=47	=47	=47
1AA	0r	1c	2f/]
.	.	.	2e/
2BB-/	.	2B-\	2d/
2D\	.	[2B-\	2f/
=48	=48	=48	=48
1C	0r	2B-\]	2g/
.	.	2A/	2a/
1BB-	.	1B-	1d
=49	=49	=49	=49
2GG/	1B-	0r	2r
2BB-/	.	.	2d/
2C/	1A	.	2e/
2D\	.	.	2f/
=50	=50	=50	=50
2GG/	1B-	0r	2g/
2G\	.	.	1b-
1F	1c	.	.
.	.	.	2a/
=51	=51	=51	=51
1G	2B-\	0r	2.b-\
.	2.d\	.	.
.	.	.	4a/
1D	.	.	1f
.	4c\	.	.
.	4B-\	.	.
.	4A/	.	.
=52	=52	=52	=52
2r	2G/	1B-	1g
2GG/	2B-\	.	.
2AA/	2c\	1A	2.e/
2C/	[2A/	.	.
.	.	.	4d/
=53	=53	=53	=53
2D\	4A/]	1B-	2f/
.	4G/	.	.
2BB-/	1G	.	2g/
1AA	.	1c	1a
.	2F#i/	.	.
=54	=54	=54	=54
0GG	2G/	2B-\	1d
.	2.B-\	2.d\	.
.	.	.	1r
.	4c\	4c\	.
.	[2d\	4B-\	.
.	.	4A/	.
=55	=55	=55	=55
0r	2d\]	2G/	1b-
.	2G/	2B-\	.
.	2A/	2c\	1a
.	[2c\	[2A/	.
=56	=56	=56	=56
0r	2c\]	4A/]	1b-
.	.	4G/	.
.	2B-\	1G	.
.	1A	.	1cc
.	.	2F#i/	.
=57	=57	=57	=57
1GG	1G	2G/	2b-\
.	.	2.B-\	2.dd\
2G\	1r	.	.
.	.	4c\	4cc\
2A\	.	[2d\	4b-\
.	.	.	4a/
=58	=58	=58	=58
1B-	1d	2d\]	2g/
.	.	2G/	2b-\
2A\	2c\	2A/	2cc\
[2F\	[2f\	[2c\	[2a/
=59	=59	=59	=59
2F\]	2f\]	2c\]	4a/]
.	.	.	4g/
2G\	2e\	2B-\	1g
1D	1d	1A	.
.	.	.	2f#i/
=60	=60	=60	=60
0GGl	0dl	0Gl	0gl
==	==	==	==
*-	*-	*-	*-
!!!RDF**kern: l=long note in original notation
!!!RDF**kern: i=editorial accidental
!!!ENC:	Chris Gage 09-09-2014
!!!END:	2014/10/05/
!!!EED:	Jesse Rodin
!!!EEV:	2014/10/16/
!!!ONB:	Translated from MusicXML and edited on 2014/10/16/ by Craig Sapp
!!muse2ps: C^@{COM}^i2I150v90,90,90,150Q16
